apps/scalable/variety.svg

<svg xmlns="http://www.w3.org/2000/svg" style="isolation:isolate" width="256" height="256"><defs><filter id="a" width="270.648" height="254.338" x="-7.32" y="2.95" filterUnits="userSpaceOnUse"><feGaussianBlur xmlns="http://www.w3.org/2000/svg" in="SourceGraphic" stdDeviation="4.294"/><feOffset xmlns="http://www.w3.org/2000/svg" dy="4" result="pf_100_offsetBlur"/><feFlood xmlns="http://www.w3.org/2000/svg" flood-opacity=".4"/><feComposite xmlns="http://www.w3.org/2000/svg" in2="pf_100_offsetBlur" operator="in" result="pf_100_dropShadow"/><feBlend xmlns="http://www.w3.org/2000/svg" in="SourceGraphic" in2="pf_100_dropShadow"/></filter></defs><path fill="#4D4D4D" d="M165.685 11.947c74.055 0 84.639 10.557 84.639 84.544v59.251c0 73.986-10.584 84.543-84.639 84.543h-75.37c-74.055 0-84.639-10.557-84.639-84.543V96.491c0-73.987 10.584-84.544 84.639-84.544h75.37z" filter="url(#a)"/><path fill="#A6B015" d="M69.667 146.667c43.666 8.666 62 61.666 89.666 62C183 207 182.75 179.125 207 172.333c24.25-6.791 42.089 16.629 41.859 18.689-4.736 42.294-23.006 49.263-83.174 49.263h-75.37c-64.784 0-80.994-8.079-84.038-59.635-2.907-3.473 31.01-42.369 63.39-33.983z"/><path fill="#FFF" d="M176.993 12.045c63.846 1.207 73.331 14.402 73.331 84.446v59.251c0 73.986-10.584 84.543-84.639 84.543h-75.37c-13.723 0-25.266-.362-34.966-1.424C62.333 226 164.333 34 176.993 12.045z" opacity=".1"/><path fill="#FFF" d="M109.667 11.947h56.018c4.071 0 7.951.032 11.647.104C136.333 87.667 63 225.667 55.937 238.925c-29.354-3.104-42.027-12.45-47.132-37.149 3.908-8.124 37.539-71.391 100.862-189.829z" opacity=".2"/><path fill="#C0CA33" d="M198.438 68.76c-14.079 0-25.491 11.318-25.491 25.278 0 13.961 11.413 25.279 25.491 25.279 14.077 0 25.49-11.318 25.49-25.279 0-13.96-11.413-25.278-25.49-25.278z"/><g opacity=".4"><linearGradient id="b" x1=".517" x2=".517" y2="1"><stop offset="0%" stop-color="#fff"/><stop offset="12.5%" stop-opacity=".098" stop-color="#fff"/><stop offset="92.5%" stop-opacity=".098"/><stop offset="100%" stop-opacity=".498"/></linearGradient><path fill="none" stroke="url(#b)" stroke-linecap="round" stroke-linejoin="round" stroke-width="4.077" d="M165.685 11.947c74.055 0 84.639 10.557 84.639 84.544v59.251c0 73.986-10.584 84.543-84.639 84.543h-75.37c-74.055 0-84.639-10.557-84.639-84.543V96.491c0-73.987 10.584-84.544 84.639-84.544h75.37z" vector-effect="non-scaling-stroke"/></g></svg>

<svg xmlns="http://www.w3.org/2000/svg" style="isolation:isolate" width="256" height="256" viewBox="0 0 256 256">
 <defs>
  <filter id="SWmfMcxneLoqmQgx72ur60i7PSAvlguR" width="270.648" height="254.338" x="-7.32" y="2.95" filterUnits="userSpaceOnUse">
   <feGaussianBlur xmlns="http://www.w3.org/2000/svg" in="SourceGraphic" stdDeviation="4.294"/>
   <feOffset xmlns="http://www.w3.org/2000/svg" dx="0" dy="4" result="pf_100_offsetBlur"/>
   <feFlood xmlns="http://www.w3.org/2000/svg" flood-opacity=".4"/>
   <feComposite xmlns="http://www.w3.org/2000/svg" in2="pf_100_offsetBlur" operator="in" result="pf_100_dropShadow"/>
   <feBlend xmlns="http://www.w3.org/2000/svg" in="SourceGraphic" in2="pf_100_dropShadow" mode="normal"/>
  </filter>
 </defs>
 <g filter="url(#SWmfMcxneLoqmQgx72ur60i7PSAvlguR)">
  <path fill="#4D4D4D" d="M 165.685 11.947 C 239.74 11.947 250.324 22.504 250.324 96.491 L 250.324 155.742 C 250.324 229.728 239.74 240.285 165.685 240.285 L 90.315 240.285 C 16.26 240.285 5.676 229.728 5.676 155.742 L 5.676 96.491 C 5.676 22.504 16.26 11.947 90.315 11.947 L 165.685 11.947 Z"/>
 </g>
 <g>
  <path fill="#A6B015" d="M 69.667 146.667 C 113.333 155.333 131.667 208.333 159.333 208.667 C 183 207 182.75 179.125 207 172.333 C 231.25 165.542 249.089 188.962 248.859 191.022 C 244.123 233.316 225.853 240.285 165.685 240.285 L 90.315 240.285 C 25.531 240.285 9.321 232.206 6.277 180.65 C 3.37 177.177 37.287 138.281 69.667 146.667 Z"/>
  <g opacity=".1">
   <path fill="#FFFFFF" d="M 176.993 12.045 C 240.839 13.252 250.324 26.447 250.324 96.491 L 250.324 155.742 C 250.324 229.728 239.74 240.285 165.685 240.285 L 90.315 240.285 C 76.592 240.285 65.049 239.923 55.349 238.861 C 62.333 226 164.333 34 176.993 12.045 Z"/>
  </g>
  <g opacity=".2">
   <path fill="#FFFFFF" d="M 109.667 11.947 L 165.685 11.947 C 169.756 11.947 173.636 11.979 177.332 12.051 C 136.333 87.667 63 225.667 55.937 238.925 C 26.583 235.821 13.91 226.475 8.805 201.776 C 12.713 193.652 46.344 130.385 109.667 11.947 Z"/>
  </g>
  <path fill="#C0CA33" d="M 198.438 68.76 C 184.359 68.76 172.947 80.078 172.947 94.038 C 172.947 107.999 184.36 119.317 198.438 119.317 C 212.515 119.317 223.928 107.999 223.928 94.038 C 223.928 80.078 212.515 68.76 198.438 68.76 L 198.438 68.76 Z"/>
 </g>
 <g opacity=".4">
  <linearGradient id="_lgradient_250" x1=".517" x2=".517" y1="0" y2="1">
   <stop offset="0%" style="stop-color:rgb(255,255,255)"/>
   <stop offset="12.5%" stop-opacity=".098" style="stop-color:rgb(255,255,255)"/>
   <stop offset="92.5%" stop-opacity=".098" style="stop-color:rgb(0,0,0)"/>
   <stop offset="100%" stop-opacity=".498" style="stop-color:rgb(0,0,0)"/>
  </linearGradient>
  <path fill="none" stroke="url(#_lgradient_250)" stroke-linecap="round" stroke-linejoin="round" stroke-width="4.077" d="M 165.685 11.947 C 239.74 11.947 250.324 22.504 250.324 96.491 L 250.324 155.742 C 250.324 229.728 239.74 240.285 165.685 240.285 L 90.315 240.285 C 16.26 240.285 5.676 229.728 5.676 155.742 L 5.676 96.491 C 5.676 22.504 16.26 11.947 90.315 11.947 L 165.685 11.947 Z" vector-effect="non-scaling-stroke"/>
 </g>
</svg>
